src/lib/packages/icons/src/assets/filled/minus-square.svg

<svg xmlns="http://www.w3.org/2000/svg" width="24" height="24" fill="none"><path fill="currentColor" d="M17.62 3H6.38C4.12 3 3 4.12 3 6.37v11.25C3 19.87 4.12 21 6.38 21h11.24c2.26 0 3.38-1.13 3.38-3.38V6.37C21 4.12 19.88 3 17.62 3Zm-2.12 9.75h-7c-.41 0-.75-.34-.75-.75s.34-.75.75-.75h7c.41 0 .75.34.75.75s-.34.75-.75.75Z"/></svg>

<svg width="24" height="24" viewBox="0 0 24 24" fill="none" xmlns="http://www.w3.org/2000/svg">
<path d="M17.62 3H6.38C4.12 3 3 4.12 3 6.37V17.62C3 19.87 4.12 21 6.38 21H17.62C19.88 21 21 19.87 21 17.62V6.37C21 4.12 19.88 3 17.62 3ZM15.5 12.75H8.5C8.09 12.75 7.75 12.41 7.75 12C7.75 11.59 8.09 11.25 8.5 11.25H15.5C15.91 11.25 16.25 11.59 16.25 12C16.25 12.41 15.91 12.75 15.5 12.75Z" fill="currentColor"/>
</svg>
